X:1
T:Engels Pols
T:(Totakt-pols, nr. EJ-47)
S:efter Erik Jensen
R:Totakt-pols
O:Boes, rhus amt, Danmark
N:Lt nr. 4 p CD:n "Totakt-pols" av ke Persson, Ethel Wieslander m fl. Till CD:n finns ett nothfte dr den har beteckningen EJ-47. Danmark|Fler ltar frn Danmark...
M:2/4
L:1/8
K:A
|: aaee | d2 B2 | Aceg | aecA | aaec | d2 B2 | AcBG | G2 A2 :|
|: EE E2 | AA A2 | AcBd | d2 c2 | aaec | d2 (Bd) | cABG | G2 A2 :|
|: Agfd | ce e2 | cABG | AA A2 | Agfd | ce e2 | cABG | A4 :|
